file/valero.svg

<svg clip-rule="evenodd" fill-rule="evenodd" stroke-linejoin="round" stroke-miterlimit="1.41421" viewBox="0 0 560 400" xmlns="http://www.w3.org/2000/svg"><g fill-rule="nonzero" transform="matrix(2.35193 0 0 2.35193 -474.101 -1365.98)"><path d="m287.021 623.308h20.885l4.808 13.01.005.011.385.156 1.229 3.276h.011c4.333.1 5.458 1.339 5.745 2.073.219.558.114 1.204-.302 1.933-.646-.667-2.089-1.235-4.813-1.339.891 2.401 1.813 4.922 1.813 4.922-2.146 2.229-4.901 5.563-3.521 8.266.984 1.927 3.708 2.906 8.099 2.911 14.151 0 39.76-9.838 42.906-11.234.604-.271.995-.828 1.031-1.464.922.208 1.584 1.047 1.537 2.026-.037.787-.531 1.427-1.209 1.729-3.13 1.391-18.864 7.313-31.838 10.068l-5.49 13.693h-16.119c-3.297 0-4.917-.203-7.151-5.235-1.172-2.635-5.089-12.63-9.084-22.552-6.114 1.901-14.125 4.709-18.88 7.204-.286.161-.615.255-.969.249-1.062-.022-1.896-.88-1.88-1.942.005-.204.042-.401.104-.584.255.177.563.282.901.287h.026c.276 0 .552-.073.792-.208 5.474-2.875 15.094-6.016 18.833-7.193l-1.187-2.917.114-.224zm0 0 6.781 16.922m29.484.437c.849 2.286.042 4.552-2.447 6.937-.521.48-5.042 4.709-4.438 6.532.281.838 1.568 1.25 3.938 1.25 3.536 0 9.364-.922 16.187-2.563l11.833-29.515h-20.885l-5.729 15.489c.75.531 1.271 1.13 1.541 1.87m51.448 58.062c0 2.98-.942 5.329-2.833 7.037-1.88 1.719-4.547 2.578-7.995 2.578-3.422 0-6.083-.859-7.979-2.578-1.891-1.708-2.844-4.057-2.844-7.037 0-3.005.953-5.364 2.844-7.067 1.896-1.703 4.557-2.557 7.979-2.557 3.433 0 6.099.859 7.99 2.578 1.89 1.708 2.838 4.057 2.838 7.046m-6.354.031c0-1.021-.114-1.959-.338-2.667-.219-.708-.532-1.276-.922-1.708-.417-.448-.886-.755-1.412-.933-.531-.177-1.125-.265-1.797-.265-.64 0-1.213.078-1.723.229-.511.161-.985.453-1.422.89-.407.417-.724.99-.969 1.714-.24.729-.365 1.682-.365 2.74 0 1.057.115 1.973.349 2.645.229.677.526 1.214.891 1.615.375.411.849.713 1.411.901.568.198 1.198.286 1.886.286.567 0 1.14-.088 1.729-.286.588-.187 1.057-.474 1.406-.854.417-.459.735-1.005.953-1.646.209-.641.323-1.563.323-2.661m-65.255-3.334v12.469h-6.458l.005-.844c-3.109 1.807-7.698 1.021-8.255.932-2.698-.338-4.792-2.656-4.792-5.453 0-2.208 1.313-4.119 3.193-4.989.213-.099 2.161-1.198 6.62-1.198h3.51c0-.995-.365-2.073-1.151-2.568-1.995-1.265-9.62-.135-9.62-.135l1.469-3.979c1.75-.339 3.651-.537 5.12-.537 3.609 0 6.239.516 7.885 1.557 1.651 1.037 2.474 2.62 2.474 4.745m-6.234 4.386c-3.688 0-5.193.26-5.193.26-.38.084-1 .287-1.443.787-.359.38-.567.901-.531 1.463.063.927.755 1.656 1.635 1.797.282.052 5.532.802 5.532-2.104zm-16.761-15.636-6.369 16.985-6.313-16.985h-6.818l8.136 20.292c.786 2.005 2.734 3.422 5.015 3.422h3.677l9.438-23.714zm26.131 3.625v20.094h2.63c2.005 0 3.63-1.625 3.63-3.63v-20.089h-2.635c-2.006 0-3.625 1.625-3.625 3.625m29.734 9.979s.01 1.474.005 2.032h-14.625c.058.833.313 4.422 6.709 4.422.765 0 2.635.187 7.302-.625v4.109c-3.875.698-6.907.599-7.985.599-11.172 0-12.26-6.453-12.26-9.474 0-3.052 1.318-9.719 11.187-9.719 3.214 0 5.625.74 7.245 2.24 1.578 1.453 2.422 3.666 2.422 6.416m-5.057-1.437c-.063-1.229-.381-3.162-4.641-3.162-4.365 0-4.729 2.245-4.818 3.162zm15.25-7.188c-2.985.126-7.12 1.667-7.12 5.98v12.76h6.234v-10.797c0-2.812 2.073-3.969 6.823-2.812v-4.62s-1.864-.557-4.588-.557c-.433 0-.881.015-1.349.046m34.442 2.375c0 .631-.224 1.177-.671 1.625-.448.448-.995.672-1.625.672-.631 0-1.178-.223-1.625-.672-.448-.448-.672-.994-.672-1.625 0-.63.224-1.177.672-1.625.447-.447.994-.677 1.625-.677.63 0 1.177.229 1.625.677.447.448.671.995.671 1.625m-1.067 1.235c.338-.344.51-.761.51-1.235 0-.479-.172-.895-.51-1.234-.339-.344-.75-.516-1.229-.516-.48 0-.891.172-1.23.516-.338.339-.505.755-.505 1.234 0 .474.167.891.505 1.235.339.338.75.515 1.23.515.479 0 .89-.177 1.229-.515m.037-.167h-.765l-.631-.792h-.14v.792h-.599v-2.239h.828c.151 0 .271.003.359.015.094.015.188.047.276.099.105.057.182.13.229.213s.073.188.073.313c0 .172-.047.312-.14.422-.079.093-.178.166-.297.224zm-1.536-1.25h.083c.078 0 .151-.004.214-.015.057-.011.109-.03.14-.057s.052-.053.068-.089c.015-.038.026-.088.026-.146 0-.041-.011-.078-.026-.109-.015-.03-.038-.057-.073-.073-.038-.026-.078-.038-.125-.042-.047-.003-.104-.011-.182-.011h-.125z" fill="#006eab"/><path d="m295.151 643.589c-6.125 1.901-14.187 4.719-18.964 7.224-.286.167-.614.255-.968.25-1.063-.015-1.896-.881-1.88-1.943.015-.755.463-1.396 1.109-1.693 5.51-2.567 13.297-5.312 19.354-7.193.443 1.105.891 2.224 1.349 3.355m68.552.161c-.364-.015-.713.068-1.016.229-18.458 7.917-44.796 13.583-46.005 10.068-.583-1.693 4.354-6.224 4.354-6.224 2.334-2.234 3.495-4.636 2.526-7.261-1.067-2.89-6.203-4.286-10.843-4.239.239.656.739 2.01 1.375 3.724.078.004.166.004.239.004 3.677.083 5.136.994 5.485 1.885.406 1.052-.646 2.292-1.146 2.839-.365.395-2.177 2.453-2.177 2.453-1.839 1.906-5.042 5.479-3.49 8.521 4.823 9.458 45.901-5.75 51.386-8.193.671-.302 1.166-.938 1.208-1.724.052-1.104-.792-2.031-1.896-2.083" fill="#ffcf00"/></g></svg>

<?xml version="1.0" encoding="UTF-8" standalone="no"?>
<!DOCTYPE svg PUBLIC "-//W3C//DTD SVG 1.1//EN" "http://www.w3.org/Graphics/SVG/1.1/DTD/svg11.dtd">
<svg width="100%" height="100%" viewBox="0 0 560 400" version="1.1" xmlns="http://www.w3.org/2000/svg" xmlns:xlink="http://www.w3.org/1999/xlink" xml:space="preserve" xmlns:serif="http://www.serif.com/" style="fill-rule:evenodd;clip-rule:evenodd;stroke-linejoin:round;stroke-miterlimit:1.41421;">
    <g transform="matrix(2.35193,0,0,2.35193,-474.101,-1365.98)">
        <path id="path8123" d="M287.021,623.308L307.906,623.308L312.714,636.318L312.719,636.329L313.104,636.485L314.333,639.761L314.344,639.761C318.677,639.861 319.802,641.1 320.089,641.834C320.308,642.392 320.203,643.038 319.787,643.767C319.141,643.1 317.698,642.532 314.974,642.428C315.865,644.829 316.787,647.35 316.787,647.35C314.641,649.579 311.886,652.913 313.266,655.616C314.25,657.543 316.974,658.522 321.365,658.527C335.516,658.527 361.125,648.689 364.271,647.293C364.875,647.022 365.266,646.465 365.302,645.829C366.224,646.037 366.886,646.876 366.839,647.855C366.802,648.642 366.308,649.282 365.63,649.584C362.5,650.975 346.766,656.897 333.792,659.652L328.302,673.345L312.183,673.345C308.886,673.345 307.266,673.142 305.032,668.11C303.86,665.475 299.943,655.48 295.948,645.558C289.834,647.459 281.823,650.267 277.068,652.762C276.782,652.923 276.453,653.017 276.099,653.011C275.037,652.989 274.203,652.131 274.219,651.069C274.224,650.865 274.261,650.668 274.323,650.485C274.578,650.662 274.886,650.767 275.224,650.772L275.25,650.772C275.526,650.772 275.802,650.699 276.042,650.564C281.516,647.689 291.136,644.548 294.875,643.371L293.688,640.454L293.802,640.23L287.021,623.308ZM287.021,623.308L293.802,640.23M323.286,640.667C324.135,642.953 323.328,645.219 320.839,647.604C320.318,648.084 315.797,652.313 316.401,654.136C316.682,654.974 317.969,655.386 320.339,655.386C323.875,655.386 329.703,654.464 336.526,652.823L348.359,623.308L327.474,623.308L321.745,638.797C322.495,639.328 323.016,639.927 323.286,640.667M374.734,698.729C374.734,701.709 373.792,704.058 371.901,705.766C370.021,707.485 367.354,708.344 363.906,708.344C360.484,708.344 357.823,707.485 355.927,705.766C354.036,704.058 353.083,701.709 353.083,698.729C353.083,695.724 354.036,693.365 355.927,691.662C357.823,689.959 360.484,689.105 363.906,689.105C367.339,689.105 370.005,689.964 371.896,691.683C373.786,693.391 374.734,695.74 374.734,698.729M368.38,698.76C368.38,697.739 368.266,696.801 368.042,696.093C367.823,695.385 367.51,694.817 367.12,694.385C366.703,693.937 366.234,693.63 365.708,693.452C365.177,693.275 364.583,693.187 363.911,693.187C363.271,693.187 362.698,693.265 362.188,693.416C361.677,693.577 361.203,693.869 360.766,694.306C360.359,694.723 360.042,695.296 359.797,696.02C359.557,696.749 359.432,697.702 359.432,698.76C359.432,699.817 359.547,700.733 359.781,701.405C360.01,702.082 360.307,702.619 360.672,703.02C361.047,703.431 361.521,703.733 362.083,703.921C362.651,704.119 363.281,704.207 363.969,704.207C364.536,704.207 365.109,704.119 365.698,703.921C366.286,703.734 366.755,703.447 367.104,703.067C367.521,702.608 367.839,702.062 368.057,701.421C368.266,700.78 368.38,699.858 368.38,698.76M303.125,695.426L303.125,707.895L296.667,707.895L296.672,707.051C293.563,708.858 288.974,708.072 288.417,707.983C285.719,707.645 283.625,705.327 283.625,702.53C283.625,700.322 284.938,698.411 286.818,697.541C287.031,697.442 288.979,696.343 293.438,696.343L296.948,696.343C296.948,695.348 296.583,694.27 295.797,693.775C293.802,692.51 286.177,693.64 286.177,693.64L287.646,689.661C289.396,689.322 291.297,689.124 292.766,689.124C296.375,689.124 299.005,689.64 300.651,690.681C302.302,691.718 303.125,693.301 303.125,695.426M296.891,699.812C293.203,699.812 291.698,700.072 291.698,700.072C291.318,700.156 290.698,700.359 290.255,700.859C289.896,701.239 289.688,701.76 289.724,702.322C289.787,703.249 290.479,703.978 291.359,704.119C291.641,704.171 296.891,704.921 296.891,702.015L296.891,699.812ZM280.13,684.176L273.761,701.161L267.448,684.176L260.63,684.176L268.766,704.468C269.552,706.473 271.5,707.89 273.781,707.89L277.458,707.89L286.896,684.176L280.13,684.176ZM306.261,687.801L306.261,707.895L308.891,707.895C310.896,707.895 312.521,706.27 312.521,704.265L312.521,684.176L309.886,684.176C307.88,684.176 306.261,685.801 306.261,687.801M335.995,697.78C335.995,697.78 336.005,699.254 336,699.812L321.375,699.812C321.433,700.645 321.688,704.234 328.084,704.234C328.849,704.234 330.719,704.421 335.386,703.609L335.386,707.718C331.511,708.416 328.479,708.317 327.401,708.317C316.229,708.317 315.141,701.864 315.141,698.843C315.141,695.791 316.459,689.124 326.328,689.124C329.542,689.124 331.953,689.864 333.573,691.364C335.151,692.817 335.995,695.03 335.995,697.78M330.938,696.343C330.875,695.114 330.557,693.181 326.297,693.181C321.932,693.181 321.568,695.426 321.479,696.343L330.938,696.343ZM346.188,689.155C343.203,689.281 339.068,690.822 339.068,695.135L339.068,707.895L345.302,707.895L345.302,697.098C345.302,694.286 347.375,693.129 352.125,694.286L352.125,689.666C352.125,689.666 350.261,689.109 347.537,689.109C347.104,689.109 346.656,689.124 346.188,689.155M380.63,691.53C380.63,692.161 380.406,692.707 379.959,693.155C379.511,693.603 378.964,693.827 378.334,693.827C377.703,693.827 377.156,693.604 376.709,693.155C376.261,692.707 376.037,692.161 376.037,691.53C376.037,690.9 376.261,690.353 376.709,689.905C377.156,689.458 377.703,689.228 378.334,689.228C378.964,689.228 379.511,689.457 379.959,689.905C380.406,690.353 380.63,690.9 380.63,691.53M379.563,692.765C379.901,692.421 380.073,692.004 380.073,691.53C380.073,691.051 379.901,690.635 379.563,690.296C379.224,689.952 378.813,689.78 378.334,689.78C377.854,689.78 377.443,689.952 377.104,690.296C376.766,690.635 376.599,691.051 376.599,691.53C376.599,692.004 376.766,692.421 377.104,692.765C377.443,693.103 377.854,693.28 378.334,693.28C378.813,693.28 379.224,693.103 379.563,692.765M379.6,692.598L378.835,692.598L378.204,691.806L378.064,691.806L378.064,692.598L377.465,692.598L377.465,690.359L378.293,690.359C378.444,690.359 378.564,690.362 378.652,690.374C378.746,690.389 378.84,690.421 378.928,690.473C379.033,690.53 379.11,690.603 379.157,690.686C379.204,690.769 379.23,690.874 379.23,690.999C379.23,691.171 379.183,691.311 379.09,691.421C379.011,691.514 378.912,691.587 378.793,691.645L379.6,692.598ZM378.064,691.348L378.147,691.348C378.225,691.348 378.298,691.344 378.361,691.333C378.418,691.322 378.47,691.303 378.501,691.276C378.532,691.249 378.553,691.223 378.569,691.187C378.584,691.149 378.595,691.099 378.595,691.041C378.595,691 378.584,690.963 378.569,690.932C378.554,690.902 378.531,690.875 378.496,690.859C378.458,690.833 378.418,690.821 378.371,690.817C378.324,690.814 378.267,690.806 378.189,690.806L378.064,690.806L378.064,691.348Z" style="fill:rgb(0,110,171);fill-rule:nonzero;"/>
        <path id="path8125" d="M295.151,643.589C289.026,645.49 280.964,648.308 276.187,650.813C275.901,650.98 275.573,651.068 275.219,651.063C274.156,651.048 273.323,650.182 273.339,649.12C273.354,648.365 273.802,647.724 274.448,647.427C279.958,644.86 287.745,642.115 293.802,640.234C294.245,641.339 294.693,642.458 295.151,643.589M363.703,643.75C363.339,643.735 362.99,643.818 362.687,643.979C344.229,651.896 317.891,657.562 316.682,654.047C316.099,652.354 321.036,647.823 321.036,647.823C323.37,645.589 324.531,643.187 323.562,640.562C322.495,637.672 317.359,636.276 312.719,636.323C312.958,636.979 313.458,638.333 314.094,640.047C314.172,640.051 314.26,640.051 314.333,640.051C318.01,640.134 319.469,641.045 319.818,641.936C320.224,642.988 319.172,644.228 318.672,644.775C318.307,645.17 316.495,647.228 316.495,647.228C314.656,649.134 311.453,652.707 313.005,655.749C317.828,665.207 358.906,649.999 364.391,647.556C365.062,647.254 365.557,646.618 365.599,645.832C365.651,644.728 364.807,643.801 363.703,643.749" style="fill:rgb(255,207,0);fill-rule:nonzero;"/>
    </g>
</svg>
